!!!COA: des Prez, Josquin
!!!CDT: ~1450-1521/08/27
!!!COA: Isaac
!!!OTL: Pleni Comment peult
!!!AGN: Mass Section; Sanctus; Pleni
!!!SCT: NJE 99.22
!!!SCA: New Josquin Edition 99.22
!!!voices: 3
**kern	**kern	**kern
*staff3	*staff2	*staff1
*Ivox	*Ivox	*Ivox
*I"Contra	*I"Tenor	*I"Superius
*I'C	*I'T	*I'S
*clefF4	*clefGv2	*clefG2
*k[b-]	*k[b-]	*k[b-]
*M2/1	*M2/1	*M2/1
*met(C|)	*met(C|)	*met(C|)
=1	=1	=1
!	!	!LO:TX:Z=8:t=From Isaac's mass cycle
1F	0r	1f
1C	.	2.cc\
.	.	4b-\
=2	=2	=2
1D	1F	2a/
.	.	2f/
1C	2.c\	1g
.	4B-\	.
=3	=3	=3
2r	2A/	1a
1F	2F/	.
.	1G	2r
2E\	.	2b-\
=4	=4	=4
2F\	1A	2a/
4E\	.	4g/
4D\	.	4f/
2F\	2r	2a/
2G\	2B-\	[2g/
=5	=5	=5
2C/	2.c\	4g/]
.	.	4f/
4D\	.	4e/
4E\	4B-\	4d/
2F\	4A/	2c/
.	4G/	.
2BB-/	2B-\	2d/
=6	=6	=6
2F\	2A/	2c/
2D\	2F/	1f
1C	1G	.
.	.	2e/
=7	=7	=7
1FF	2r	1f
.	2.F/	.
2r	.	2r
.	4G/	.
2F\	2A/	2f/
=8	=8	=8
2E\	2G/	4g/
.	.	4f/
2C/	2c\	4e/
.	.	4d/
4F\	2A/	2c/
4E\	.	.
4D\	[2B-\	[2d/
4C/	.	.
=9	=9	=9
2BB-/	2B-\]	2d/]
2C/	1A	2c/
2D\	.	1B-
2E\	2G/	.
=10	=10	=10
1F	1A	2A/
.	.	2.F/
2.FF/	2r	.
.	.	4G/
.	[2F/	4A/
4GG/	.	4B-/
=11	=11	=11
4AA/	4F/]	2.c/
4BB-/	4G/	.
2.C/	4A/	.
.	4B-\	4d/
.	2.c\	4e/
4D\	.	4f/
4E\	.	[2g/
4F\	4d\	.
=12	=12	=12
2G\	4e\	4g/]
.	4f\	4a/
2GG/	2d\	4b-\
.	.	4cc\
2.C/	1c	2a/
.	.	[2g/
4D\	.	.
=13	=13	=13
2E\	2B-\	4g/]
.	.	4f/
2F\	2A/	1f
1C	1G	.
.	.	2e/
=14	=14	=14
1FF	[0F	1f
2r	.	2r
[2FF/	.	[2cc\
=15	=15	=15
4FF/]	1F]	4cc\]
4GG/	.	4b-\
4AA/	.	2a/
4BB-/	.	.
2C/	2r	2g/
[2FF/	[2f\	[2a/
=16	=16	=16
4FF/]	4f\]	4a/]
4GG/	4e\	4g/
4AA/	2d\	2f/
4BB-/	.	.
2C/	2c\	2e/
2BB-/	[2d\	[2f/
=17	=17	=17
2.D\	4d\]	4f/]
.	4c\	4e/
.	2B-\	2d/
4E\	.	.
2F\	2A/	2c/
2BB-/	[2B-\	[2d/
=18	=18	=18
1D	4B-\]	4d/]
.	4A/	4c/
.	2F/	1f
1C	1G	.
.	.	2e/
=19	=19	=19
1FF	2r	1f
.	2.F/	.
2r	.	2r
.	4G/	.
2FF/	4A/	2f/
.	4B-\	.
=20	=20	=20
2.F\	2c\	2.a/
.	2d\	.
4G\	.	4b-\
2A\	2c\	2cc\
2D\	[2f\	[2dd\
=21	=21	=21
2.F\	4f\]	4dd\]
.	4e\	4cc\
.	2d\	4b-\
4G\	.	4a/
2A\	2c\	2cc\
2D\	[2d\	[2a/
=22	=22	=22
2F\	4d\]	4a/]
.	4c\	4g/
2G\	2B-\	1g
2C/	1A	.
2D\	.	2f#i/
=23	=23	=23
2.E\	2r	1g
.	2G/	.
4C/	.	.
1C	2.c\	2r
.	.	2g/
.	4B-\	.
=24	=24	=24
2r	2A/	2.cc\
1F	2F/	.
.	.	4b-\
.	2c\	2a/
2D\	2d\	2f/
=25	=25	=25
1G	1B-	1g
2F\	2A/	2a/
2E\	2G/	[2b-\
=26	=26	=26
1F	2A/	2b-\]
.	2c\	1a
1G	2B-\	.
.	4A/	2g/
.	4G/	.
=27	=27	=27
2r	2F/	1a
2.D\	2.f\	.
.	.	2r
4E\	4e\	.
4F\	2d\	2a/
4G\	.	.
=28	=28	=28
2A\	2c\	2cc\
4G\	2.e-\	4b-\
4F\	.	4a/
2E\	.	2g/
.	4d\	.
2F\	2c\	2a/
=29	=29	=29
4G\	2B-\	4b-\
4F\	.	4a/
4E\	2.c\	4g/
4D\	.	4f/
2C/	.	2e/
.	4B-\	.
2D\	4A/	2a/
.	4G/	.
=30	=30	=30
2BB-/	2B-\	2g/
2D\	2F/	1f
1C	1G	.
.	.	2e/
=31	=31	=31
1FF	2r	2.f/
.	2.F/	.
.	.	4g/
2.F\	.	4a/
.	4G/	4b-\
.	4A/	[2cc\
4G\	4B-\	.
=32	=32	=32
2A\	2c\	4cc\]
.	.	4b-\
2D\	2d\	4a/
.	.	4g/
2G\	2B-\	2b-\
2C/	2c\	[2a/
=33	=33	=33
2F\	2A/	4a/]
.	.	4g/
2BB-/	2B-\	1f
1C	1G	.
.	.	2e/
=34	=34	=34
0FFl	0Fl	0fl
=||	=||	=||
*-	*-	*-
!!!RDF**kern: l=long note in original notation
!!!RDF**kern: i=editorial accidental
!!!system-decoration: [s1,s2,s3]
!!!RDF**kern: i = editorial accidental
!!!ENC: Jesse Rodin 24 Oct 2020
!!!END: 2020/10/24
!!!EED: Jesse Rodin
!!!EEV: 2021/04/14
!!attribution-level@Jos: 4b (almost certainly by another composer [double question mark])
!!!ONB: Translated from MusicXML and edited on 2021/04/14 by Craig Sapp
!!muse2ps: C^Isaac; @{COA}??\n(attrib. Josqin in Egenolff ca. 1536)^i2I150v115,115,150z18c100
